!!!OTL: ICH WEISS EIN RUHEBETTE
!!!ARE: Europa, Mitteleuropa, Deutschland
!!!SCT: F1071
!!!YEM: Copyright 1995, estate of Helmut Schaffrath.
**kern
*ICvox
*Ivox
*M4/4
*k[f#]
*G:
{4b
=1
4b
4g
4cc
4b
=2
2a
4g
8r}
{8g
=3
4g
4g
4g
8a
8e
=4
2f#
4r}
{8f#
8g
=5
4a
4a
4a
4b
=6
4b
8dd
8cc
4cc
8r}
{8cc
=7
4f#
8g
8a
4d
4f#
=8
2.g}
==
!!!AGN: Trauer -, Bregraebnis -, Trost - Lied
!!!ONB: ESAC (Essen Associative Code) Database: FINK
!!!AMT: simple quadruple
!!!AIN: vox
!!!EED: Helmut Schaffrath
!!!EEV: 1.0
*-
